dist/assets/toolkit/images/cost.svg

<?xml version="1.0" encoding="UTF-8"?>
<svg width="48px" height="48px" viewBox="0 0 48 48" version="1.1" xmlns="http://www.w3.org/2000/svg" xmlns:xlink="http://www.w3.org/1999/xlink">
    <!-- Generator: sketchtool 42 (36781) - http://www.bohemiancoding.com/sketch -->
    <title>C71BB7A4-C9A1-4C83-9ED6-F94DB8FE688D</title>
    <desc>Created with sketchtool.</desc>
    <defs></defs>
    <g id="Page-1" stroke="none" stroke-width="1" fill="none" fill-rule="evenodd">
        <g id="Show-page" transform="translate(-571.000000, -677.000000)" fill="#7F98F6">
            <g id="Qmimi" transform="translate(571.000000, 677.000000)">
                <g id="Euro">
                    <path d="M24,0 C10.745679,0 0,10.745679 0,24 C0,37.254321 10.745679,48 24,48 C37.254321,48 48,37.254321 48,24 C48,10.745679 37.254321,0 24,0 L24,0 Z M32.3753086,36.1580247 C31.654321,36.4839506 30.9037037,36.7604938 30.1333333,36.9679012 C27.2098765,37.7777778 24.2864198,37.8074074 21.3728395,36.8592593 C17.8567901,35.7234568 15.5259259,33.3234568 14.1333333,29.9654321 C13.8666667,29.3135802 13.6888889,28.6320988 13.4814815,27.9506173 L10.7259259,27.9506173 C10.2617284,27.9506173 9.8962963,27.5753086 9.8962963,27.1209877 L9.8962963,25.2641975 C9.8962963,24.8 10.2716049,24.4345679 10.7259259,24.4345679 L13.0074074,24.4345679 L13.0074074,22.9234568 L10.7259259,22.9234568 C10.2617284,22.9234568 9.8962963,22.5481481 9.8962963,22.0938272 L9.8962963,20.237037 C9.8962963,19.7728395 10.2716049,19.4074074 10.7259259,19.4074074 L13.6296296,19.4074074 L13.7283951,19.1209877 C14.508642,16.6419753 15.8518519,14.5185185 17.9160494,12.9185185 C19.5555556,11.6444444 21.4518519,10.9432099 23.4864198,10.617284 C26.3802469,10.1530864 29.1851852,10.5481481 31.9012346,11.6148148 C32.0790123,11.6839506 32.2469136,11.762963 32.4148148,11.8617284 C33.0666667,12.2469136 33.2345679,12.7308642 32.9481481,13.4320988 C32.6419753,14.162963 32.3358025,14.9037037 32,15.6246914 C31.7135802,16.2469136 31.3185185,16.4444444 30.6469136,16.2962963 C29.7283951,16.0888889 28.8296296,15.8024691 27.9111111,15.6148148 C25.9753086,15.2197531 24.0493827,15.2 22.162963,15.9407407 C20.5432099,16.582716 19.5555556,17.817284 18.8839506,19.3580247 C18.8740741,19.3777778 18.8740741,19.3975309 18.8740741,19.417284 L24.5135802,19.417284 C24.9777778,19.417284 25.3432099,19.7925926 25.3432099,20.2469136 L25.3432099,22.1037037 C25.3432099,22.5679012 24.9679012,22.9333333 24.5135802,22.9333333 L18.0740741,22.9333333 C18.0641975,23.4271605 18.0740741,23.9209877 18.0740741,24.4444444 L24.5234568,24.4444444 C24.9876543,24.4444444 25.3530864,24.8197531 25.3530864,25.2740741 L25.3530864,27.1308642 C25.3530864,27.5950617 24.9777778,27.9604938 24.5234568,27.9604938 L18.637037,27.9604938 C19.3481481,29.9950617 20.5037037,31.5654321 22.6765432,32.2469136 C24.4148148,32.7901235 26.162963,32.7604938 27.9209877,32.3950617 C28.8296296,32.2074074 29.7185185,31.9308642 30.6271605,31.7234568 C31.3382716,31.5654321 31.7234568,31.7530864 32.0197531,32.4049383 C32.3555556,33.1358025 32.6716049,33.8765432 32.9679012,34.6271605 C33.2444444,35.2987654 33.0666667,35.8419753 32.3753086,36.1580247 L32.3753086,36.1580247 Z" id="Shape"></path>
                </g>
            </g>
        </g>
    </g>
</svg>

<svg width="48" height="48" viewBox="0 0 48 48" xmlns="http://www.w3.org/2000/svg"><title>C71BB7A4-C9A1-4C83-9ED6-F94DB8FE688D</title><path d="M24 0C10.746 0 0 10.746 0 24s10.746 24 24 24 24-10.746 24-24S37.254 0 24 0zm8.375 36.158c-.72.326-1.471.602-2.242.81-2.923.81-5.847.84-8.76-.109-3.516-1.136-5.847-3.536-7.24-6.894-.266-.651-.444-1.333-.652-2.014h-2.755a.828.828 0 0 1-.83-.83v-1.857c0-.464.376-.83.83-.83h2.281v-1.51h-2.281a.828.828 0 0 1-.83-.83v-1.857c0-.464.376-.83.83-.83h2.904l.098-.286c.78-2.479 2.124-4.602 4.188-6.202 1.64-1.275 3.536-1.976 5.57-2.302 2.894-.464 5.7-.069 8.415.998a3.5 3.5 0 0 1 .514.247c.652.385.82.869.533 1.57-.306.731-.612 1.472-.948 2.193-.286.622-.681.82-1.353.671-.919-.207-1.817-.494-2.736-.681-1.936-.395-3.862-.415-5.748.326-1.62.642-2.607 1.876-3.279 3.417-.01.02-.01.04-.01.06h5.64c.464 0 .83.375.83.829v1.857c0 .464-.376.83-.83.83h-6.44c-.01.493 0 .987 0 1.51h6.45c.464 0 .83.376.83.83v1.857c0 .464-.376.83-.83.83h-5.887c.711 2.034 1.867 3.604 4.04 4.286 1.738.543 3.486.513 5.244.148.909-.188 1.798-.464 2.706-.672.711-.158 1.096.03 1.393.682.336.73.652 1.472.948 2.222.276.672.099 1.215-.593 1.531z" fill="#7F98F6" fill-rule="evenodd"/></svg>
